docs/img/network-vk.svg

<svg width="25" height="14" viewBox="0 0 25 14" fill="none" xmlns="http://www.w3.org/2000/svg">
<path d="M23.9644 11.3402C23.2201 10.4567 22.3441 9.70277 21.5153 8.90213C20.7676 8.18045 20.7204 7.7618 21.3215 6.92886C21.9775 6.01978 22.683 5.14557 23.3449 4.24059C23.9628 3.39483 24.5945 2.55138 24.9196 1.53872C25.1259 0.894468 24.9435 0.6099 24.2758 0.497098C24.1608 0.477357 24.0419 0.476332 23.9248 0.476332L19.9636 0.471718C19.4758 0.464539 19.2061 0.675017 19.0335 1.1029C18.8006 1.68126 18.5604 2.25912 18.283 2.81723C17.6534 4.08266 16.9502 5.3058 15.9644 6.34152C15.7471 6.56995 15.5066 6.85862 15.1434 6.73966C14.689 6.57559 14.555 5.83468 14.5625 5.58421L14.5586 1.06008C14.4706 0.413778 14.3257 0.12562 13.6772 0L9.56248 0.000769171C9.01322 0.000769171 8.73782 0.210734 8.44454 0.550679C8.27535 0.747057 8.22432 0.874472 8.57201 0.939589C9.25495 1.06777 9.63969 1.50514 9.74177 2.18272C9.90551 3.26536 9.89411 4.35236 9.7998 5.43936C9.77208 5.75675 9.71689 6.07336 9.58968 6.36972C9.39071 6.83555 9.06944 6.9304 8.6474 6.64378C8.26525 6.38434 7.99684 6.01824 7.73413 5.65061C6.74728 4.27084 5.95993 2.78288 5.31792 1.21929C5.13242 0.767567 4.81245 0.493765 4.32874 0.48633C3.14032 0.467615 1.95165 0.464539 0.763234 0.487356C0.0481644 0.500687 -0.165061 0.84422 0.126149 1.48565C1.42053 4.33467 2.86129 7.10448 4.74198 9.62765C5.70758 10.9226 6.8162 12.0657 8.24841 12.8758C9.87157 13.7941 11.6188 14.0705 13.4591 13.9854C14.3208 13.9454 14.5796 13.7236 14.6195 12.8738C14.6465 12.2923 14.7131 11.7142 15.003 11.1918C15.2874 10.679 15.7183 10.5813 16.215 10.9003C16.4634 11.06 16.6728 11.2633 16.8704 11.4776C17.3554 12.0026 17.8231 12.5436 18.3265 13.0509C18.9579 13.6867 19.7059 14.0623 20.6463 13.9857L24.287 13.9864C24.8735 13.9485 25.1777 13.2368 24.8409 12.589C24.6043 12.1352 24.294 11.7312 23.9644 11.3402Z" fill="black" fill-opacity="0.26"/>
</svg>

<svg width="25" height="14" viewBox="0 0 25 14" fill="none" xmlns="http://www.w3.org/2000/svg"><path d="M23.964 11.34c-.744-.883-1.62-1.637-2.449-2.438-.747-.722-.795-1.14-.194-1.973.656-.91 1.362-1.783 2.024-2.688.618-.846 1.25-1.69 1.575-2.702.206-.645.023-.93-.644-1.042a2.082 2.082 0 00-.351-.02L19.964.471c-.488-.007-.758.203-.93.63a23.89 23.89 0 01-.751 1.715c-.63 1.266-1.333 2.489-2.319 3.525-.217.228-.457.517-.82.398-.455-.164-.589-.905-.582-1.156L14.56 1.06c-.09-.646-.234-.934-.883-1.06H9.562c-.549 0-.824.21-1.117.55-.17.197-.22.324.127.39.683.128 1.068.565 1.17 1.243.164 1.082.152 2.17.058 3.256a3.001 3.001 0 01-.21.93c-.2.467-.52.561-.943.275-.382-.26-.65-.626-.913-.993-.987-1.38-1.774-2.868-2.416-4.432-.186-.451-.506-.725-.99-.733A102.04 102.04 0 00.764.487c-.715.014-.928.357-.637.999 1.295 2.849 2.735 5.618 4.616 8.142.966 1.295 2.074 2.438 3.506 3.248 1.624.918 3.37 1.194 5.211 1.11.862-.04 1.12-.262 1.16-1.112.027-.582.094-1.16.384-1.682.284-.513.715-.61 1.212-.292.248.16.458.363.655.578.485.525.953 1.066 1.456 1.573.632.636 1.38 1.011 2.32.935h3.641c.587-.038.89-.75.554-1.397-.237-.454-.547-.858-.877-1.249z" fill="#000" fill-opacity=".26"/></svg>
